resources/svg/list-settings-fill.svg

<svg fill="currentColor" viewBox="0 0 24 24" xmlns="http://www.w3.org/2000/svg"><path d="M2 18H9V20H2V18ZM2 11H11V13H2V11ZM2 4H22V6H2V4ZM20.674 13.0251L21.8301 12.634L22.8301 14.366L21.914 15.1711C21.9704 15.4386 22 15.7158 22 16C22 16.2842 21.9704 16.5614 21.914 16.8289L22.8301 17.634L21.8301 19.366L20.674 18.9749C20.2635 19.3441 19.7763 19.6295 19.2391 19.8044L19 21H17L16.7609 19.8044C16.2237 19.6295 15.7365 19.3441 15.326 18.9749L14.1699 19.366L13.1699 17.634L14.086 16.8289C14.0296 16.5614 14 16.2842 14 16C14 15.7158 14.0296 15.4386 14.086 15.1711L13.1699 14.366L14.1699 12.634L15.326 13.0251C15.7365 12.6559 16.2237 12.3705 16.7609 12.1956L17 11H19L19.2391 12.1956C19.7763 12.3705 20.2635 12.6559 20.674 13.0251ZM18 17C18.5523 17 19 16.5523 19 16C19 15.4477 18.5523 15 18 15C17.4477 15 17 15.4477 17 16C17 16.5523 17.4477 17 18 17Z"/></svg>

<svg xmlns="http://www.w3.org/2000/svg" viewBox="0 0 24 24" fill="currentColor">
    <g>
        <path fill="none" d="M0 0h24v24H0z"/>
        <path d="M2 18h7v2H2v-2zm0-7h9v2H2v-2zm0-7h20v2H2V4zm18.674 9.025l1.156-.391 1 1.732-.916.805a4.017 4.017 0 0 1 0 1.658l.916.805-1 1.732-1.156-.391c-.41.37-.898.655-1.435.83L19 21h-2l-.24-1.196a3.996 3.996 0 0 1-1.434-.83l-1.156.392-1-1.732.916-.805a4.017 4.017 0 0 1 0-1.658l-.916-.805 1-1.732 1.156.391c.41-.37.898-.655 1.435-.83L17 11h2l.24 1.196c.536.174 1.024.46 1.434.83zM18 17a1 1 0 1 0 0-2 1 1 0 0 0 0 2z"/>
    </g>
</svg>
